X: 39910
T: Thomas Judge
R: waltz
M: 3/4
K: Eminor
BA|B2e2e2|e4d2|edefg2|g2a2g2|
gf ef g2|ed cB AG|E2A2A2|A4BA|
G2D2d2|d2Bcd2|B2G2g2|bagab2|
g2e2e2|d2B2A2|B2e2e2|e4z2|
e2e2e2|e2f2g2|B2A2G2|A2G2F2|
d2d2d2|d2d2d2|d2Bc dB|e4GF|
EFG2F2|EFG2E2|D2F2d2|A2F2D2|
B3AG2|G2F2E2|D2B2D2|E4D2|
E2G2e2|E2G2e2|d2edcB|A2F2D2|
G2B2g2|G2B2g2|gfefg2|g4Bd|
e2fedc|d2edcB|A2BAGF|G2AGFE|
D2F2d2|D2F2AF|G2E2E2|E4||

